X:1
T:The Beach Boys - Surfin' USA On Piano
T:The Beach Boys - Surfin' USA On Piano
%%score { 1 | 2 }
L:1/8
Q:1/4=200
M:4/4
K:Ab
V:1 treble nm="Piano"
V:2 bass 
V:1
 z4 z E [Gg]/[Bc]/A | [Ge]B [Ge]/B/[Acd] [GB]E[GB][Ac] | [GB]d d2 ddcc | [FB]B<F[=DF] [DF]F[Fc] z | %4
 fd3/2d3/2 d c2 [GB] | [EGB][EG] z [EG]/G/ [EG][GB]/[EG]/ B[EG] | %6
 E[GBd] G/d/[GB] [Gd]/G/[GBd] [Gc][cd] | B3 [=DF]2 z2 z | z d d2 d c2 [GB] | %9
 [EG]2 E[EG] EG EG/E/- | Ec[ce] [cf]2 [ce]2 [ce]/ z/ | z2 E[CEA] z2 E2 | z e e2 e2 e[cc'] | %13
 E z [EGBe] z [EGB][EG] [EBg]/G/G/E/ | [EG] [Gd]2 [Gd] G[Gd]c z | B z2 [=DF]2 F F2 | %16
 c'2 A2 GF z [=DE]/ z/ | z8 | z d2 d3 c2 | [=DF]2 [DF]D [DF=A]>D [DFBg]2 | =DD>gd gd[cg]c | %21
 [GBg]2 [GBg]2 [GBg][GBg] [GBg]G/[Gg]/ | B[Gg]g[GBdg] G[dg]/G/ c2 | [=DFBg]g [DFg]2 [DBg]g [DF]<g | %24
 [=DFB]3/2g3/2d g[dg] c2 | [GBg]2 [GBg]2 [Ge]2 [Geg]>G- | Gce[cf] g[ce]ec | f3 [CEA]4- [CEA] | %28
 f[ce][ce]e c[ce]ec | [cg]2 [GBg]G [GBe]2 [Ge]2- | [Ge] z B2 E2 B2 | [=DAa]2- [DAa]/A/ [DF]3 g2 | %32
 z2 AA [Gg] F2 E | z8 | z d2 d2 dcF | z2 z [=DF]/F D2 D3/2- | D _D2 D DCC z | z8 | z D D2 DDC z | %39
 z2 g z g=d' g2 | gD D2 DCD z | z2 z E4- E/C/- | CCEF>EC E2 | z2 z E2 G3- | G A4 AA[GBg] | %45
 [GB][GBg] [EGegb]>[Gg] [Ge]<[GB] [Geg]2 | [EGBe]3/2 B2- B/ ee b2 | [=d=ea]g z/ g/[df] g d3 | %48
 z2 [ca]/e/c g [cf]2 [GBe] | BG [Be]2 [eg']2 [Begg']2 | [Bb] B2 [Bb]2 [Bb]2 [Bb] | %51
 [Bga=d'f']g [ad']2 g_g<=g[B_g=g] | [ga]2- [ga]/g/[Bf_gbc'] =g/_g/[e=gd'] e<g | %53
 [eg]2 [Eegbd']2 [ebc'] b2 e | [ebd']2 e e2 [ba']3 | b2 a'2 g' [bf']2 b | %56
 [ba']2 [bg'] [ba']2 [bg'][bf']b | [bc']e b2 [ec']bbe | [Ed']2 [ec'][Ee]>f [c_g]2 c | %59
 z/ _g/c e[cg] [Ccefg=g]2 [ce_g][Ccg] | c[cef]f[c_gc'] [ce][c=dg][df][ce] | %61
 [c_g][Ece] d>d [EGc] [EFB]2 [EG] | [EGd]/E/F [EBc][EG] bE g<E- | EB [fga]2 gf>gB | %64
 [ag']<g [CBg][CBfb=d']/g/ d'/[B=d]/f/C/ [Ccc'][Bc] | [Ee_g]A [=Bceg]2 [=eac'] _e2 [c=de] | %66
 =dcec [c_gc']f[eg]c | B3/2d3/2[Bd] _ge/ d2 =A/ | =A/_A/a _G<A E2 [AB]B | [=DA]2 D[DF]>DF F z | %70
 z2 [Aa]A GF z/ E3/2- | E/ z4 z2 z z/ | z4 E2 B2 | [=DA] z/ F3/2[DF] DDF z | %74
 z2 [Aa]2 [Gg]F/E/ z/ E3/2 | bE z4 z2 | z d dd<ddcd | B2 g[=DF] g4 | gd d2 dc z [GBg]- | %79
 [GBg] G3 z G G2 | [GB]d/G/ d[GBd] [GBg]/d/G [cd][Gcdg]/[FG]/ | [Bg]G[Gg][=DF]>gg g2 | %82
 gd d2 dcc[GBg] | [cf]Gg' f2 b3- | bC EF<FE E<E | z8 | z E C<E [CE]/E/E C z | z2 E2 E4- | %88
 E z2 z E2 [Bfb]2 | [=DA] z D[DF] D/ z D/ z2 | z2 A>A G/F z E/=E/ z/ | z/ F z2 z z/ F G2- | %92
 G B2 B2 e b2 | [=da=d']2 c[dfd'] z2 c z | z2 aa [gg']f/ z z/ e | z2 [GBb]4 [Gg]f'- | %96
 f' z2 z E2- E<E | [=DA]2 D/F/D [DF]/[DF][DF] z/ D | [=DF]D/D/ [CD][CEA]/C[CE]/E [Aa]C | %99
 [EAa']A [Aca']2 [CAe]2 E2 | [EGd]2- [EGd]<E d/dd/ [Ec]/d[Ed]/- | %101
 [Ed]/d/[Ec] [d=d]/b_d/ [Ed]d [Ecd]/G/d | [EGBdg]G [EGdb]2 [Ece]>d [EBebe']2 | %103
 [EGBg]3/2c [EBc]2 F3/2 [EG]2- | [EG]2 [EGBe]6- | [EGBe]4- [EGBe]eee- | e8 | E8- | E8 | %109
V:2
 z4 z [E,B,] z2 | z4 z [E,B,] z2 | z8 | [B,,B,] z2 B, z2 z B, | z8 | [E,B,] z E, z4 z | %6
 z4 z2 z B, | [B,,B,]3 z2 B,3- | B, z4 z2 z | [E,B,]2 z B, z B, z2 | z4 z2 z z/ A,,/ | %11
 A,E,[A,,A,][E,A,] A,2 [_G,A,]2 | A, z4 z2 z | E,B, z B, B, z2 z | z4 z2 z B, | %15
 B,, B,2 B,2 B, B,2 | [A,,A,]2 z4 [E,A,] z/ E,,/- | E,,2 [G,B,]2 B,2 B,2- | B, z4 z2 z | %19
 z2 B,, z4 z | z8 | E,2 z4 z2 | z8 | z8 | z8 | [E,,E,]2 z4 z2 | z8 | [A,,A,]3 z4 z | z8 | %29
 [E,,E,]2 z4 z2 | z B, B,,2 z4 | z8 | [A,,,A,,]2 z4 z2 | [E,,E,]B,,3/2G,3/2 G,4- | G, z4 z2 z | %35
 [B,,B,]3 z4 z | z4 z2 B,,[G,=A,] | E, G,2 [G,B,]3/2G, G,2- G,/- | G, z4 z2 E, | %39
 [B,,F,B,]2 z =D, z4 | z4 z2 z [G,B,] | E,3 [G,B,]4- [G,B,]/ z/ | z8 | [A,,A,]3 [C,A,]2 z2 z | %44
 z A,4 z2 z | z8 | z8 | z2 A,/ z4 z z/ | [A,,A,]2 z2 [A,,A,] z2 z | E,, z4 z2 z | z2 z B,,2 z2 z | %51
 z8 | z4 z2 B,/ z z/ | E,,2 z4 z2 | z8 | B,,2 z4 z2 | z8 | E, z4 z2 z | z8 | %59
 [A,,A,]/ z2 z z/ A,,2 z2 | z8 | E, z2 z E, z2 z | z8 | z8 | z8 | A,, z4 z2 z | z8 | z8 | %68
 z2 z/ B,3/2 z4 | B,,2 B,, z2 B, z B, | [A,,A,]2 z4 E,/ z z/ | z/ B,,3/2 G,2 B,4- | B,2 B,B, z4 | %73
 [B,,B,]B,/ z z/ B, z2 z B, | [A,,A,]2 z4 [E,A,]/ z z/ | z2 [G,B,]G, [G,B,]4- | [G,B,] z4 z2 z | %77
 B,,2 z4 z2 | z4 z2 E, z | z4 E, z2 z | z8 | z8 | z8 | [E,,E,] z4 z2 z | z4 z2 z/ G,3/2 | %85
 [A,,A,]2 [A,,A,]A, [A,B,]2 A,2 | A, z4 z A,[E,B,] | E,,2 [G,B,]2 z4 | z B,3 z4 | %89
 B,,F, z B, z/ F, z/ B,B, | [A,,A,]2 z2 z z/ E,/ A,/ z E,,/- | E,,/ z G,3/2G, G, z [G,B,]2- | %92
 [G,B,] z4 z2 z | [B,,B,]2 z B, B,,B,B,,B, | [A,,A,]2 z2 z z/ A,3/2 z | [E,A,]B,, z4 z2 | %96
 z B,3 z4 | [B,,B,]2 z/ B,/ z B,/ z2 B,/ z | B, z/ [F,B,]/ z [A,,A,]/ z z/ E, z2 | %99
 A, z A,2 A,2 [E,A,]2 | E,,2- E,,/ z4 z z/ | z8 | z8 | G,3/2 z4 z2 z/ | z8 | z8 | z8 | G,8- | G,8 | %109

